!!!ONB: MCCC : IBB0038_01 : Extracted Monophonic Melody
!!!COM: Bartók, Béla
!!!OPR: 2 Romanian Dances
!!!OMV: 1
!!!SCT: Op.8a ; Sz.43
!!!ODT: 1910///
**kern
*staff1
*clefG2
*k[b-e-a-d-g-]
*D-:
*M4/4
=4
8GG
8EE-
8EE-
8FF
8GG
8EE-
16GG-
16FF
8DD-
=5
8GG
8EE-
8EE-
8FF
8GG
8EE-
16GG-
16FF
8DD-
=6
4.CC
8DD
8EE-
8GG
16GG-
16FF
8DD-
=7
4.CC
8DD
8EE-
8GG
16GG-
16FF
8DD-
=8
8GG
8EE-
8EE-
8FF
8GG
8EE-
16GG-
16FF
8DD-
=9
8GG
8EE-
8EE-
8FF
8GG
8EE-
16GG-
16FF
8DD-
=10
4.CC
8DD
8EE-
8GG
16GG-
16FF
8DD-
=11
4.CC
8DD
8EE-
8GG
16GG-
16FF
8DD-
=12
1r
=13
8E-
8G
8G
8G-
8E-
8G
16G-
16A-
8A
=14
8E-
8G
8G
8G-
8E-
8G
16G-
16A-
8A
=15
4.B-
8G
8F-
8G
16G-
16B-
8c
=16
4.B-
8G
8F-
8G
16G-
16B-
8d-
=17
8e-
8g
8g
8g-
8e-
8g
16g-
16a-
8a
=18
8e-
8g
8g
8g-
8e-
8g
16g-
16a-
8a
=19
4.b-
8g
8f-
8g
16g-
16b-
8cc
=20
4.b-
8g
8f-
8g
16g-
16b-
8cc
=21
4r
16B-
16d-
8e-
4r
16f-
16a-
8b-
=22
4r
16cc-
16ee-
8ff
4r
16cc-
16ff-
8gg-
=23
4r
16cc-
16ff-
8gg-
4r
16cc-
16ff-
8gg-
=24
4r
16cc-
16ff-
8gg-
16cc-
16ff-
8gg-
16cc-
16ff-
8gg-
=25
16cc-
16ff-
8gg-
16cc-
16ff-
8gg-
16cc-
16ff-
8gg-
16cc-
16ff-
8gg-
=26
16cc-
16ff-
8gg-
16cc-
16ff-
8gg-
8gg
8ee-
8ee-
8ff
=27
8gg
8ee-
16gg-
16ff
8dd-
8gg
8ee-
8ee-
8ff
=28
8gg
8ee-
16gg-
16ff
8dd-
4.cc
8dd
=29
8ee-
8gg
16gg-
16ff
8dd-
4.cc
8dd
=30
8ee-
8gg
16gg-
16ff
8dd-
8g
8e-
8e-
8f
=31
8g
8e-
16g-
16f
8d-
8g
8e-
8e-
8f
=32
8g
8e-
16g-
16f
8d-
4.C
8D
=33
8E-
8G
16G-
16F
8D-
4.C
8D
=34
8E-
8G
16G-
16F
8D-
4r
16G-
16F
8D-
=35
4r
16G-
16F
8D-
4r
16g-
16f
8d-
=36
4r
16ggg-
16fff
8ddd-
16gg-
16ff
8dd-
4r
=37
16r
32r
32cc
8dd-
16r
32r
32cc
8dd-
16r
32r
32cc
8dd-
16r
32r
32cc
8dd-
=38
16r
32r
32cc
8dd-
16r
32r
32cc
8dd-
16r
32r
32cc
8dd-
16r
32r
32cc
8dd-
=39
16r
32r
32ee-
8ff-
16r
32r
32ee-
8ff-
16r
32r
32ee-
8ff-
16r
32r
32ee-
8ff-
=40
16r
32r
32ee-
8ff-
16r
32r
32ee-
8ff-
16r
32r
32ee-
8ff-
16r
32r
32ee-
8ff-
=41
8ff-
8cc-
8cc-
8dd-
8dd
8dd-
24dd-
24cc-
24a
8a-
=42
8ff-
8cc-
8cc-
8dd-
8dd
8cc-
32cc-
32a
32g
32g-
8f-
=43
4.d
8f-
8g
8cc-
16dd
16ff-
8gg-
=44
4.d
8f-
8g
8cc-
16dd
16ff-
8gg-
=45
8gg
8dd
16b-
16cc
8dd
16a
16cc-
8dd-
16cc
16b-
8a-
=46
8ff-
8cc-
16g
16a
8cc-
16g-
16a-
8b-
16g
16f
8e-
=47
8cc
8g
16f-
16g-
8a-
16g-
16f-
8d
16d-
16e-
8f
=48
16g-
16f-
8d
16f-
16d
8c
16d
16c
8B-
16A
16c-
8d-
=49
16d
16c
8B-
16A
16c-
8d-
16d
16c
8B-
16A
16c-
8d-
=50
16c-
16A
8G
16A
16G
8F
16G
16F
8E-
16F
16E-
8D-
=51
4.C
8D
8E-
8G
16G-
16F
8D-
=52
4.C
8D
8E-
8G
16G-
16F
8D-
=53
4r
16gg-
16ff
8dd-
8aa
8ff-
16cc
16dd
8ee-
=54
16dd
16cc
8b-
16a
16cc-
8dd-
8ff
8cc
16a-
16b-
8cc-
=55
16b-
16a
8g-
16f
16g
8a
8dd
8a
16dd-
16cc
8b-
=56
16cc
16b-
8a-
16cc-
16b-
8a-
16b-
16a
8g
16b-
16a-
8g-
=57
16a
16a-
8g-
16a-
16g-
8f-
16g
16f
8e-
16d
16f-
8g-
=58
16g
16f
8e-
16d
16f-
8g-
16g
16f
8e-
16g-
16f
8e-
=59
16g-
16f
8d
16g-
16f
8d-
2c[
=60
4c]
16g-
16f
8d-
2c[
=61
4c]
16g-
16f
8d-
4r
16g-
16f
8d-
=62
4r
16g-
16f
8d-
4r
8g-
8f
=63
*M1/4
8f
8d-
=64
4c-
=65
4c-[
=66
16c-]
16d-
24c-
24d-
24f
=67
16g
[8.g
=68
4g]
=69
4r
=70
16g-
16f
16f
16d-
=71
4c-
=72
4c-[
=73
16c-]
16d-
24c-
24d-
24f
=74
16d-
8.d-
=75
4d-
=76
4d-[
=77
4d-]
=78
4r
=79
16gg-
16ff
16ff
16dd-
=80
4cc-
=81
4cc-[
=82
16cc-]
16dd-
24cc-
24dd-
24ff
=83
16gg
[8.gg
=84
4gg]
=85
4r
=86
16gg-
16ff
16ff
16dd-
=87
4cc-
=88
4cc-[
=89
16cc-]
16dd-
24cc-
24dd-
24ff
=90
16dd-
8.dd-
=91
4dd-
=92
4dd-[
=93
4dd-]
=94
4r
=95
4r
=96
16g-
16f
16f
16d-
=97
*M3/4
2c-[
16c-]
16d-
24c-
24d-
24f
=98
*M4/4
4g
2g
16g-
16f
16f
16d-
=99
*M3/4
2c-[
16c-]
16d-
24c-
24d-
24f
=100
24d-
12d-
8d-
2d-
=101
*M1/4
4d-]
=102
*M4/4
8FF-
8GG
8GG
8GG-
8FF-
8GG
16GG-
16AA-
8AA
=103
8FF-
8GG
8GG
8GG-
8FF-
8GG
16GG-
16AA-
8AA
=104
8BB-
8D
8D
8D-
8BB-
8D
16D-
16E-
8F-
=105
8BB-
8D
8D
8D-
8BB-
8D
16D-
16E-
8F-
=106
4.F
8D
8BB-
8D
16E-
16G-
8B-
=107
4.F
8D
8BB-
8D
16E-
16G-
8B-
=108
4.c-
8G
8F-
8G
16B-
16d-
8g-
=109
4.c-
8G
8F-
8G
16B-
16d-
8g-
=110
8F
8B-
16d
16c
8B-
8A
8d-
16c
16d
8f-
=111
8B-
8e-
16g
16f
8e-
16d
16f-
8g-
16a-
16b-
8cc
=112
8d-
8g-
16a
16a-
8g-
16g
16a
8cc-
16dd-
16a
16.f
32gg
=113
4.ff-
8dd-
8a
8dd-
16b-
16dd
16gg-
32r
32aa
=114
4.ff-
8dd-
8a
8dd-
16b-
16dd
8gg-
=115
8cc
8ff-
16ee-
16gg-
8bb-
8ff-
8gg
16gg-
16bb-
8ddd-
=116
8gg
8ccc-
16ddd
16ccc
8aa-
16ddd
16ccc
8aa-
16ddd
16ccc
8aa-
=117
8a
8dd-
16cc
16ff-
8aa-
8a
8dd-
16cc
16ff-
8aa-
=118
8dd
8gg-
16bb-
16aa
8ee-
16bb-
16aa
8ee-
16gg-
16ccc-
8ddd-
=119
16bb-
16aa-
8ee-
16gg-
16ccc-
8ddd-
16bb-
16aa-
8ee-
16gg-
16ccc-
8ddd-
=120
16bb-
16aa-
8ee-
16gg-
16ccc-
8ddd-
16aa-
16ddd-
8eee-
16bb-
16eee-
8fff
=121
16b-
16ee-
8ff
16B-
16e-
8f
16BB-
16E-
8F
16B-
16e-
8f
=122
16b-
16ee-
8ff
16cc-
16ff-
8gg-
16c-
16f-
8g-
16ccc-
16fff-
8ggg-
=123
8ggg
8eee-
8eee-
8fff
8ggg
8eee-
16ggg-
16fff
8ddd-
=124
8ggg
8eee-
8eee-
8fff
8ggg
8eee-
16ggg-
16fff
8ddd-
=125
4.ccc
8ddd
8eee-
8ggg
16ggg-
16fff
8ddd-
=126
4.ccc
8ddd
8eee-
8ggg
16ggg-
16fff
8ddd-
=127
8ggg
8eee-
8eee-
8fff
8ggg
8eee-
16ggg-
16fff
8ddd-
=128
8ggg
8eee-
8eee-
8fff
8ggg
8eee-
16ggg-
16fff
8ddd-
=129
4.ccc
8ddd
8eee-
8ggg
16ggg-
16fff
8ddd-
=130
4.ccc
8ddd
8eee-
8ggg
16ggg-
16fff
8ddd-
=131
8ggg
8fff-
8fff-
8ggg-
8ggg
8fff-
16ggg-
16fff
8ddd
=132
8ggg
8fff-
8fff-
8ggg-
8ggg
8fff-
16ggg-
16fff
8ddd
=133
4.ddd-
8eee-
8fff-
8ggg
16ggg-
16fff
8ddd
=134
4.ddd-
8eee-
8fff-
8ggg
16ggg-
16fff
8ddd
=135
*M1/4
4r
=136
*M4/4
8aa-
8ccc-
8ccc-
8bb-
8aa-
8ccc-
16bb-
16ddd-
8fff
=137
8aa-
8ccc-
8ccc-
8bb-
8aa-
8ccc-
16bb-
16ddd-
8fff
=138
4.ggg-
8eee-
8ccc-
8eee-
16ddd-
16fff
8aaa
=139
4.bbb-
8ggg-
8ddd
8ggg-
16eee-
16ggg
8cccc-
=140
4.bbb-
8ggg-
8ddd
8ggg-
16eee-
16ggg
8cccc-
=141
4r
16eee-
16ggg
8cccc-
4r
16eee-
16ggg
8cccc-
=142
*M1/4
4r
=143
*M4/4
8aa
8ccc
16bb-
16ddd-
8fff
8ff
8aa
16gg-
16bb-
8ddd
=144
8ff-
8gg
16bb-
16aa-
8ee-
16bb-
16aa-
8ee-
16bb-
16aa-
8ee-
=145
8a-
8cc
16a
16dd-
8gg-
8f
8a
16g-
16b-
8ee-
=146
8d
8g
16b-
16a-
8d-
16b-
16a-
8d-
16g-
16a-
8ee-
=147
8c
8f-
16a-
16g-
8c-
8A
8c
16f-
16d
8G
=148
8F
8A
16c
16B-
8E-
16B-
16A-
8D-
16A-
16G-
8C-
=149
8f
8a
16cc
16b-
8e-
16b-
16a-
8d-
16a-
16g-
8c-
=150
8ff
8aa
16ccc
16bb-
8ee-
16bb-
16aa-
8dd-
16aa-
16gg-
8cc-
=151
16gg-
16ff-
8a
16ff-
16dd
8g
16dd
16cc
8f
16cc
16b-
8e-
=152
16b-
16a-
8d-
4r
16a-
16g-
8c-
4r
=153
16g-
16f-
8A
4r
16G-
16A-
8B-
16d-
16e-
8f-
=154
8g
8e-
8e-
8f
8g
8e-
16g-
16f
8d-
=155
8g
8e-
8e-
8f
8g
8e-
16g-
16f
8d-
=156
4.c
8d
8e-
8g
16g-
16f
8d-
=157
4.c
8d
8e-
8g
16g-
16f
8d-
=158
8G
8E-
8E-
8F
8G
8E-
16G-
16F
8D-
=159
4r
16gg-
16ccc-
8ddd-
16bb-
16aa-
8ee-
16cc-
16dd-
8gg-
=160
4r
16ggg-
16cccc-
8dddd-
16bbb-
16aaa-
8eee-
16ccc-
16ddd-
8ggg-
=161
*M3/4
4.C
8D
8E-
8G
=162
4r
4r
16G-
16F
8D-
=163
*M4/4
4r
16g-
16f
8d-
4r
16G-
16F
8D-
=164
4r
16gg-
16ff
8dd-
4r
16G-
16F
8D-
=165
4r
16g-
16f
8D-
16gg-
16ff
8d-
16ggg-
16fff
8dd-
=166
8G
8ee-
8ee-
8ff
4gg
16ggg-
16fff
8dd-
=167
8G
8ee-
8ee-
8ff
4gg
16ggg-
16fff
8dd-
=168
4G
4ee-
4ee-
4ff
=169
4gg
[16gggg-
16gggg-_
8gggg-_
16gggg-_
16gggg-_
8gggg-_
16gggg-_
16gggg-_
8gggg-_
=170
4gggg-_
2.gggg-]
==
*-
